X:1
L:1/8
Q:1/4=120
M:2/4
K:D
""^plaintive"" D | d>c de | fg ed/c/ | d>c AA | A3 f/g/ | a>g fa | g>f eA | de/f/ g/e/d/c/ | 
 d3 f/g/ | a>g fb/>a/ | g>f ed/c/ | de/f/ g/f/e/d/ | c<A z c | d>c de | fd ge/>d/ | dc A (3G/A/B/ | 
 A3 |]
